X:9
T:"An Crann Fuinseoige"
T:(The Ash Tree)
C:Reel composed by Davy Rogers
L:1/8
Q:200
M:4/4
K:D
AG |: FGAF EFGE | DFGA Bcdc | dGeG fGge | fedA B2 AG |
FGAd EFGB | DFGA Bcdc | \dGgG fGed |1 eAdc d2 AG :|2 eAdc d2 Bc |:
defa gabg | fgaf edcB | AcdB Acde | fedf e2 Bc | defd cgAe |
BcdB AeFc | dGgG fGed |1 eAdc d2 Bc :|2 eAdc d2 ||  



